icons-dark/apps/48/system-help.svg

<?xml version="1.0" encoding="UTF-8" standalone="no"?>

<!-- Created with Inkscape (http://www.inkscape.org/) -->
<svg width="48" version="1.1" xmlns="http://www.w3.org/2000/svg" height="48" xmlns:xlink="http://www.w3.org/1999/xlink" xmlns:inkscape="http://www.inkscape.org/namespaces/inkscape">
 <defs id="defs5455">
  <linearGradient inkscape:collect="always" id="linearGradient4435">
   <stop style="stop-color:#c61423" id="stop4437"/>
   <stop offset="1" style="stop-color:#dc2b41" id="stop4439"/>
  </linearGradient>
  <linearGradient inkscape:collect="always" id="linearGradient4303">
   <stop style="stop-color:#c6cdd1" id="stop4305"/>
   <stop offset="1" style="stop-color:#e0e5e7" id="stop4307"/>
  </linearGradient>
  <linearGradient inkscape:collect="always" xlink:href="#linearGradient4303" id="linearGradient4266" y1="41" y2="6" x2="0" gradientUnits="userSpaceOnUse" gradientTransform="matrix(1.1111112 0 0 1.1111112 381.90477 497.13134)"/>
  <linearGradient inkscape:collect="always" id="linearGradient4168">
   <stop style="stop-color:#cea476" id="stop4170"/>
   <stop offset="1" style="stop-color:#dab58b" id="stop4172"/>
  </linearGradient>
  <linearGradient inkscape:collect="always" xlink:href="#linearGradient4168" id="linearGradient4385" y1="44" y2="4" gradientUnits="userSpaceOnUse" x2="0" gradientTransform="matrix(0.99794285 0 0 1.0072639 -383.80507 -503.28216)"/>
  <linearGradient inkscape:collect="always" xlink:href="#linearGradient4435" id="linearGradient4441" y1="42" y2="6" x2="0" gradientUnits="userSpaceOnUse"/>
  <linearGradient inkscape:collect="always" xlink:href="#linearGradient4227" id="linearGradient4492" y1="503.798" x1="399.57144" y2="528.79797" x2="424.57144" gradientUnits="userSpaceOnUse" gradientTransform="matrix(1 0 0 1 -384.57143 -499.798)"/>
  <linearGradient inkscape:collect="always" id="linearGradient4227">
   <stop style="stop-color:#292c2f" id="stop4229"/>
   <stop offset="1" style="stop-opacity:0" id="stop4231"/>
  </linearGradient>
 </defs>
 <metadata id="metadata5458"/>
 <g inkscape:label="Capa 1" inkscape:groupmode="layer" id="layer1" transform="matrix(1 0 0 1 -384.57143 -499.798)">
  <path inkscape:connector-curvature="0" style="stroke-opacity:0.550265;fill:url(#linearGradient4266);stroke-width:2.8" id="rect4152" d="m 408.57143,503.798 c -11.08,0 -20,8.92 -20,20 0,11.08 8.92,20 20,20 11.08,0 20,-8.92 20,-20 0,-11.08 -8.92,-20 -20,-20 z m 0,11.11112 c 4.92444,0 8.88888,3.96444 8.88888,8.88888 0,4.92444 -3.96444,8.88888 -8.88888,8.88888 -4.92444,0 -8.88888,-3.96444 -8.88888,-8.88888 0,-4.92444 3.96444,-8.88888 8.88888,-8.88888 z"/>
  <path style="fill:url(#linearGradient4441);fill-rule:evenodd" id="path4412" d="M 15.222656 6.0371094 C 10.716224 8.234494 7.1757923 12.062909 5.3574219 16.775391 L 15.255859 22.431641 C 15.815441 19.269908 18.03277 16.702322 20.986328 15.642578 L 15.222656 6.0371094 z M 32.777344 6.0371094 L 27.013672 15.642578 C 29.96723 16.702322 32.184559 19.269908 32.744141 22.431641 L 42.642578 16.775391 C 40.824208 12.062909 37.283776 8.234494 32.777344 6.0371094 z M 15.255859 25.568359 L 5.3574219 31.224609 C 7.1757923 35.937091 10.716224 39.765506 15.222656 41.962891 L 20.986328 32.357422 C 18.03277 31.297678 15.815441 28.730092 15.255859 25.568359 z M 32.744141 25.568359 C 32.184559 28.730092 29.96723 31.297678 27.013672 32.357422 L 32.777344 41.962891 C 37.283776 39.765506 40.824208 35.937091 42.642578 31.224609 L 32.744141 25.568359 z " transform="matrix(1 0 0 1 384.57143 499.798)"/>
  <path inkscape:connector-curvature="0" style="stroke-opacity:0.550265;fill:#99a1a7;stroke-width:2.8" id="path4180" d="M 4.0117188,23.5 C 4.007647,23.666859 4,23.832126 4,24 c 0,11.08 8.92,20 20,20 11.08,0 20,-8.92 20,-20 0,-0.167874 -0.0076,-0.333141 -0.01172,-0.5 C 43.72361,34.346137 34.912126,43 24,43 13.087874,43 4.2763904,34.346137 4.0117188,23.5 Z" transform="matrix(1 0 0 1 384.57143 499.798)"/>
  <path style="fill:url(#linearGradient4492);opacity:0.2;fill-rule:evenodd" id="path4484" d="M 11 10 L 10.195312 13 L 8 17 L 7 20 L 6 24 L 7 28 L 9 34 L 10 37 L 9 37 L 11.974609 39.974609 C 15.319641 42.49228 19.472354 44 24 44 C 30.051613 44 35.445882 41.327821 39.107422 37.107422 L 31.205078 29.205078 C 29.593296 31.436624 26.975135 32.888672 24 32.888672 C 19.07556 32.888672 15.111328 28.92444 15.111328 24 C 15.111328 21.024865 16.563376 18.406704 18.794922 16.794922 L 12 10 L 11 10 z " transform="matrix(1 0 0 1 384.57143 499.798)"/>
  <path style="stroke-opacity:0.550265;fill:url(#linearGradient4385);stroke-width:2.8" id="path4379" d="M 10.5 11 C 10.223 11 10 11.223 10 11.5 C 10 11.673616 10.092966 11.818626 10.226562 11.908203 C 7.5692889 15.326447 5.9628906 19.618879 5.9628906 24.320312 C 5.9628906 28.887403 7.4925488 33.057527 10.015625 36.425781 C 10.011729 36.451025 10 36.473632 10 36.5 C 10 36.777 10.223 37 10.5 37 C 10.777 37 11 36.777 11 36.5 C 11 36.467506 10.988287 36.438938 10.982422 36.408203 L 11.142578 36.408203 C 11.096678 36.269973 11.034275 36.148296 10.953125 36.066406 C 8.458275 32.826586 6.9609375 28.759793 6.9609375 24.320312 C 6.9609375 23.765382 6.98545 23.216208 7.03125 22.673828 C 7.35188 18.877258 8.770125 15.411022 10.953125 12.576172 C 11.292275 12.233862 11.341355 11.22624 10.953125 11 C 10.914159 11.044611 10.88038 11.093713 10.841797 11.138672 C 10.752321 11.054109 10.6334 11 10.5 11 z M 36.972656 11 C 36.584426 11.22624 36.633506 12.233862 36.972656 12.576172 C 39.155656 15.411022 40.573901 18.877258 40.894531 22.673828 C 40.940331 23.216208 40.964844 23.765382 40.964844 24.320312 C 40.964844 28.759793 39.467506 32.826586 36.972656 36.066406 C 36.891556 36.148306 36.829123 36.269973 36.783203 36.408203 L 36.898438 36.408203 L 37.001953 36.513672 C 37.009316 36.777775 37.218901 36.986501 37.482422 36.996094 L 37.486328 37 C 37.486328 37 37.488281 36.998047 37.488281 36.998047 C 37.492385 36.998145 37.495872 37 37.5 37 C 37.777 37 38 36.777 38 36.5 C 38 36.445932 37.984486 36.396353 37.96875 36.347656 C 40.456909 32.993012 41.962891 28.852115 41.962891 24.320312 C 41.962891 19.634018 40.366485 15.35432 37.724609 11.941406 C 37.886676 11.858887 38 11.695 38 11.5 C 38 11.223 37.777 11 37.5 11 C 37.344632 11 37.212663 11.075055 37.121094 11.185547 C 37.069712 11.125318 37.024722 11.059609 36.972656 11 z " transform="matrix(1 0 0 1 384.57143 499.798)"/>
  <path inkscape:connector-curvature="0" style="stroke-opacity:0.550265;fill:#7e1722;stroke-width:2.8" id="rect4393" d="m 395.07143,509.798 c -0.83099,0 -1.5,0.66901 -1.5,1.5 0,0.83099 0.66901,1.5 1.5,1.5 0.83099,0 1.5,-0.66901 1.5,-1.5 0,-0.83099 -0.66901,-1.5 -1.5,-1.5 z m 27,0 c -0.83099,0 -1.5,0.66901 -1.5,1.5 0,0.83099 0.66901,1.5 1.5,1.5 0.83099,0 1.5,-0.66901 1.5,-1.5 0,-0.83099 -0.66901,-1.5 -1.5,-1.5 z m -27,1 c 0.27699,0 0.5,0.22301 0.5,0.5 0,0.27699 -0.22301,0.5 -0.5,0.5 -0.27699,0 -0.5,-0.22301 -0.5,-0.5 0,-0.27699 0.22301,-0.5 0.5,-0.5 z m 27,0 c 0.27699,0 0.5,0.22301 0.5,0.5 0,0.27699 -0.22301,0.5 -0.5,0.5 -0.27699,0 -0.5,-0.22301 -0.5,-0.5 0,-0.27699 0.22301,-0.5 0.5,-0.5 z m -27,24 c -0.83099,0 -1.5,0.66901 -1.5,1.5 0,0.83099 0.66901,1.5 1.5,1.5 0.83099,0 1.5,-0.66901 1.5,-1.5 0,-0.83099 -0.66901,-1.5 -1.5,-1.5 z m 27,0 c -0.83099,0 -1.5,0.66901 -1.5,1.5 0,0.83099 0.66901,1.5 1.5,1.5 0.83099,0 1.5,-0.66901 1.5,-1.5 0,-0.83099 -0.66901,-1.5 -1.5,-1.5 z m -27,1 c 0.27699,0 0.5,0.22301 0.5,0.5 0,0.27699 -0.22301,0.5 -0.5,0.5 -0.27699,0 -0.5,-0.22301 -0.5,-0.5 0,-0.27699 0.22301,-0.5 0.5,-0.5 z m 27,0 c 0.27699,0 0.5,0.22301 0.5,0.5 0,0.27699 -0.22301,0.5 -0.5,0.5 -0.27699,0 -0.5,-0.22301 -0.5,-0.5 0,-0.27699 0.22301,-0.5 0.5,-0.5 z"/>
 </g>
</svg>

<svg width="48" xmlns="http://www.w3.org/2000/svg" height="48">
 <defs>
  <linearGradient id="a" y1="542.69" y2="503.8" x2="0" gradientUnits="userSpaceOnUse">
   <stop stop-color="#c6cdd1"/>
   <stop offset="1" stop-color="#e0e5e7"/>
  </linearGradient>
  <linearGradient id="b" y1="44" y2="4" gradientUnits="userSpaceOnUse" x2="0" gradientTransform="matrix(.99794 0 0 1.0073-383.81-503.28)">
   <stop stop-color="#cea476"/>
   <stop offset="1" stop-color="#dab58b"/>
  </linearGradient>
  <linearGradient id="c" y1="42" y2="6" x2="0" gradientUnits="userSpaceOnUse">
   <stop stop-color="#c61423"/>
   <stop offset="1" stop-color="#dc2b41"/>
  </linearGradient>
  <linearGradient id="d" y1="503.8" x1="399.57" y2="528.8" x2="424.57" gradientUnits="userSpaceOnUse" gradientTransform="translate(-384.57-499.8)">
   <stop stop-color="#292c2f"/>
   <stop offset="1" stop-opacity="0"/>
  </linearGradient>
 </defs>
 <g transform="translate(-384.57-499.8)">
  <path stroke-opacity=".55" fill="url(#a)" stroke-width="2.8" d="m408.57 503.8c-11.08 0-20 8.92-20 20 0 11.08 8.92 20 20 20 11.08 0 20-8.92 20-20 0-11.08-8.92-20-20-20m0 11.11c4.924 0 8.889 3.964 8.889 8.889 0 4.924-3.964 8.889-8.889 8.889-4.924 0-8.889-3.964-8.889-8.889 0-4.924 3.964-8.889 8.889-8.889"/>
  <path fill="url(#c)" fill-rule="evenodd" d="m15.223 6.04c-4.506 2.197-8.05 6.03-9.865 10.738l9.898 5.656c.56-3.162 2.777-5.729 5.73-6.789zm17.555 0l-5.764 9.605c2.954 1.06 5.171 3.627 5.73 6.789l9.898-5.656c-1.818-4.712-5.359-8.541-9.865-10.738m-17.521 19.531l-9.898 5.656c1.818 4.712 5.359 8.541 9.865 10.738l5.764-9.605c-2.954-1.06-5.171-3.627-5.73-6.789m17.488 0c-.56 3.162-2.777 5.729-5.73 6.789l5.764 9.605c4.506-2.197 8.05-6.03 9.865-10.738z" transform="translate(384.57 499.8)"/>
  <g transform="translate(384.57 499.8)">
   <path stroke-opacity=".55" fill="#99a1a7" stroke-width="2.8" d="m4.01 23.5c-.004.167-.012.332-.012.5 0 11.08 8.92 20 20 20 11.08 0 20-8.92 20-20 0-.168-.008-.333-.012-.5-.265 10.846-9.08 19.5-19.988 19.5-10.912 0-19.724-8.654-19.988-19.5"/>
   <path opacity=".2" fill="url(#d)" fill-rule="evenodd" d="m11 10l-.805 3-2.195 4-1 3-1 4 1 4 3 9h-1l2.975 2.975c3.345 2.518 7.498 4.03 12.03 4.03 6.05 0 11.446-2.672 15.11-6.893l-7.902-7.902c-1.612 2.232-4.23 3.684-7.205 3.684-4.924 0-8.889-3.964-8.889-8.889 0-2.975 1.452-5.593 3.684-7.205l-6.795-6.795z"/>
   <path stroke-opacity=".55" fill="url(#b)" stroke-width="2.8" d="m10.5 11c-.277 0-.5.223-.5.5 0 .174.093.319.227.408-2.657 3.418-4.264 7.711-4.264 12.412 0 4.567 1.53 8.737 4.053 12.11-.004.025-.016.048-.016.074 0 .277.223.5.5.5.277 0 .5-.223.5-.5 0-.032-.012-.061-.018-.092h.16c-.046-.138-.108-.26-.189-.342-2.495-3.24-3.992-7.307-3.992-11.746 0-.555.025-1.104.07-1.646.321-3.797 1.739-7.263 3.922-10.1.339-.342.388-1.35 0-1.576-.039.045-.073.094-.111.139-.089-.085-.208-.139-.342-.139m26.473 0c-.388.226-.339 1.234 0 1.576 2.183 2.835 3.601 6.301 3.922 10.1.046.542.07 1.092.07 1.646 0 4.439-1.497 8.506-3.992 11.746-.081.082-.144.204-.189.342h.115l.104.105c.007.264.217.473.48.482l.004.004.002-.002c.004 0 .008.002.012.002.277 0 .5-.223.5-.5 0-.054-.016-.104-.031-.152 2.488-3.355 3.994-7.496 3.994-12.03 0-4.686-1.596-8.966-4.238-12.379.162-.083.275-.246.275-.441 0-.277-.223-.5-.5-.5-.155 0-.287.075-.379.186-.051-.06-.096-.126-.148-.186"/>
  </g>
  <path stroke-opacity=".55" fill="#7e1722" stroke-width="2.8" d="m395.07 509.8c-.831 0-1.5.669-1.5 1.5 0 .831.669 1.5 1.5 1.5.831 0 1.5-.669 1.5-1.5 0-.831-.669-1.5-1.5-1.5m27 0c-.831 0-1.5.669-1.5 1.5 0 .831.669 1.5 1.5 1.5.831 0 1.5-.669 1.5-1.5 0-.831-.669-1.5-1.5-1.5m-27 1c.277 0 .5.223.5.5 0 .277-.223.5-.5.5-.277 0-.5-.223-.5-.5 0-.277.223-.5.5-.5m27 0c.277 0 .5.223.5.5 0 .277-.223.5-.5.5-.277 0-.5-.223-.5-.5 0-.277.223-.5.5-.5m-27 24c-.831 0-1.5.669-1.5 1.5 0 .831.669 1.5 1.5 1.5.831 0 1.5-.669 1.5-1.5 0-.831-.669-1.5-1.5-1.5m27 0c-.831 0-1.5.669-1.5 1.5 0 .831.669 1.5 1.5 1.5.831 0 1.5-.669 1.5-1.5 0-.831-.669-1.5-1.5-1.5m-27 1c.277 0 .5.223.5.5 0 .277-.223.5-.5.5-.277 0-.5-.223-.5-.5 0-.277.223-.5.5-.5m27 0c.277 0 .5.223.5.5 0 .277-.223.5-.5.5-.277 0-.5-.223-.5-.5 0-.277.223-.5.5-.5"/>
 </g>
</svg>
